elements/app-hax/lib/rpg-character-toast/images/SpeechBubbleL.svg

<svg xmlns="http://www.w3.org/2000/svg" fill="none" width="316" height="142" viewBox="0 0 316 142"><path d="M101 18v-3H23v3h78Zm0 110H23v3h78v-3ZM23 21v-3h-6v3h6Zm-6 0h-3v3h3v-3Zm-3 9v-6h-3v6h3Zm-3 0H8v86h3V30Zm3 92v-6h-3v6h3Zm3 3v-3h-3v3h3Zm6 3v-3h-6v3h6Z" fill="#000"/></svg>

<svg width="316" height="142" viewBox="0 0 316 142" fill="none" xmlns="http://www.w3.org/2000/svg">
<path d="M101 18V15H23V18H101Z" fill="black"/>
<path d="M101 128H23V131H101V128Z" fill="black"/>
<path d="M23 21V18H17V21H23Z" fill="black"/>
<path d="M17 21H14V24H17V21Z" fill="black"/>
<path d="M14 30V24H11V30H14Z" fill="black"/>
<path d="M11 30H8V116H11V30Z" fill="black"/>
<path d="M14 122V116H11V122H14Z" fill="black"/>
<path d="M17 125V122H14V125H17Z" fill="black"/>
<path d="M23 128V125H17V128H23Z" fill="black"/>
</svg>
